src/assets/svg/event-hero-image2.svg

<svg width="818" height="573" fill="none" xmlns="http://www.w3.org/2000/svg"><g clip-path="url(#a)"><path d="M818 .507H.35V573H818V.507z" fill="#E6E6E6"/><path d="M794.619 72.311H23.729v466.82h770.89V72.311z" fill="#fff"/><path d="M817.651 0H0v37.976h817.651V0z" fill="#E7301C"/><path d="M25.814 26.454c3.555 0 6.438-3.151 6.438-7.038 0-3.888-2.883-7.039-6.438-7.039-3.556 0-6.439 3.151-6.439 7.039 0 3.887 2.883 7.038 6.439 7.038zM50.251 26.454c3.556 0 6.439-3.151 6.439-7.038 0-3.888-2.883-7.039-6.439-7.039-3.555 0-6.438 3.151-6.438 7.039 0 3.887 2.883 7.038 6.438 7.038zM74.69 26.454c3.555 0 6.437-3.151 6.437-7.038 0-3.888-2.882-7.039-6.438-7.039-3.555 0-6.438 3.151-6.438 7.039 0 3.887 2.882 7.038 6.438 7.038z" fill="#fff"/><path d="M269.354 110.708H118.579v178.831h150.775V110.708zM484.56 110.708H333.785v178.831H484.56V110.708zM699.767 110.708H548.992v178.831h150.775V110.708zM269.354 321.908H118.579v178.831h150.775V321.908zM484.56 321.908H333.785v178.831H484.56V321.908zM699.767 321.908H548.992v178.831h150.775V321.908z" fill="#E6E6E6"/><path d="M177.145 218.841c14.076 0 25.486-12.475 25.486-27.863 0-15.389-11.41-27.864-25.486-27.864s-25.487 12.475-25.487 27.864c0 15.388 11.411 27.863 25.487 27.863z" fill="#FFB9B9"/><path d="M167.189 212.31s3.186 16.544 3.186 18.286c0 1.741 15.133 9.578 15.133 9.578l13.539-2.612 4.779-15.674s-7.964-13.061-7.964-18.285l-28.673 8.707z" fill="#FFB9B9"/><path d="M155.043 168.529s8.092-19.168 23.601-14.744c15.51 4.423 24.276 11.058 24.95 17.693.675 6.635-.337 16.587-.337 16.587s-1.686-13.638-12.475-10.689c-10.789 2.948-27.647.737-27.647.737l-2.698 26.539s-3.034-4.791-6.406-1.843c-3.372 2.949-9.778-28.382 1.012-34.28z" fill="#2F2E41"/><path d="m257.983 282.841-6.366-31.351c-3.193-10.451-11.151-19.151-11.151-19.151l-39.278-15.101h-.01c-.076 3.796-1.247 7.468-3.344 10.494-2.098 3.026-5.015 5.251-8.337 6.358-11.951 4.344-20.179-10.297-20.179-10.297l-33.202 27.697s-10.35 9.586-9.549 27.871l-1.101 10.177h135.58l-3.063-6.697z" fill="#E7301C"/><path d="M391.775 232.727c19.106 0 34.594-17.975 34.594-40.147 0-22.173-15.488-40.147-34.594-40.147-19.105 0-34.593 17.974-34.593 40.147 0 22.172 15.488 40.147 34.593 40.147z" fill="#2F2E41"/><path d="M422.469 253.333c10.051 0 18.199-8.908 18.199-19.896 0-10.988-8.148-19.895-18.199-19.895-10.051 0-18.198 8.907-18.198 19.895s8.147 19.896 18.198 19.896z" fill="#2F2E41"/><path d="m409.795 206.792 9.749 27.711-24.697 11.369-2.169-5.374-7.582-18.785 24.699-14.921z" fill="#9F616A"/><path d="M390.297 224.91c12.025 0 21.773-10.657 21.773-23.803 0-13.147-9.748-23.804-21.773-23.804s-21.774 10.657-21.774 23.804c0 13.146 9.749 23.803 21.774 23.803z" fill="#9F616A"/><path d="M372.5 198.496c13.685-9.984 17.776-12.37 33.462-8.514l.941-25.019-40.536 9.297 6.133 24.236z" fill="#2F2E41"/><path d="m460.487 255.101-.601.076a.388.388 0 0 0-.05-.065c-2.382-2.605-13.753-7.343-22.231-10.626h-.01a400.826 400.826 0 0 0-9.599-3.589l-10.25-11.523c-2.582 3.173-8.038 5.624-13.223 7.353a96.488 96.488 0 0 1-12.091 3.152h-.01l-2.122 7.408s-24.053 19.906-25.995 22.029h-.01v.021c-.155.242-.22.54-.18.832v.055a105.099 105.099 0 0 0-1.862 19.314h104.74v-6.719c0-9.236-6.506-27.718-6.506-27.718z" fill="#575A89"/><path d="M653.092 289.539h-51.79l-2.853-30.761-.17-1.871-.35-3.71-1.431-15.506-1.792 16.655-3.784 35.193h-9.409l.35-10.954.351-11.107.15-4.476 1.932-60.887c-.148-9.649 2.644-19.077 7.937-26.8 2.939-4.182 6.731-7.557 11.074-9.854 4.343-2.297 9.117-3.453 13.94-3.376 4.922-.017 9.781 1.211 14.195 3.59 4.414 2.379 8.265 5.844 11.25 10.122 5.471 7.8 8.399 17.376 8.318 27.204l.891 36.856 1.191 49.682z" fill="#2F2E41"/><path d="M617.248 223.903c12.581 0 22.78-11.15 22.78-24.904s-10.199-24.904-22.78-24.904c-12.581 0-22.78 11.15-22.78 24.904s10.199 24.904 22.78 24.904z" fill="#FBBEBE"/><path d="M605.858 216.787s6.508 24.015 0 31.13c-6.509 7.116-8.136 9.784-8.136 9.784l18.712 27.573 32.543-43.583s-22.78-7.115-17.085-26.683l-26.034 1.779zM676.134 289.538h-19.219l-.32-3.6-.29-3.327 8.848-1.214 10.67-1.456.12 3.732.191 5.865z" fill="#FBBEBE"/><path d="M677.452 283.495s-3.255-22.236-5.695-31.13c-2.441-8.895-4.882-8.895-4.882-8.895v-.002c-2.873-3.14-9.779-3.699-14.974-3.611-3.644.044-6.446.394-6.446.394l-29.018 33.464-14.614-21.241v-.011c-1.316.112-2.62.358-3.894.734a24.203 24.203 0 0 0-3.223 1.149c-4.526 2.114-8.697 5.039-12.342 8.656h-.01c-2.102 2.068-3.343 3.589-3.343 3.589a110.858 110.858 0 0 0-7.227 22.947h92.989l.21-4.574v-.009l12.469-1.46z" fill="#E7301C"/><path d="M598.129 194.996c14.713-8.672 20.756-8.304 39.051 0l4.882-13.002c-.003-2.448-.894-4.795-2.477-6.526-1.583-1.731-3.73-2.705-5.97-2.708H600.88c-2.239.003-4.386.977-5.969 2.708-1.584 1.731-2.474 4.078-2.477 6.526l5.695 13.002zM191.973 365.192a5.596 5.596 0 0 0-3.481.85 9.895 9.895 0 0 0-2.354 3.397c-2.547 4.89-5.995 9.148-10.126 12.505-3.008 2.41-6.834 5.414-6.319 9.857a14.086 14.086 0 0 0 1.467 4.161c2.775 6.125 10.349 10.859 9.604 17.849 2.758-5.047-.93-7.543 1.827-12.59 1.313-2.404 3.595-5.117 5.578-3.607.663.505 1.099 1.412 1.791 1.855 1.649 1.058 3.404-.965 4.864-2.398 5.034-4.941 12.194-3.646 18.459-2.107 2.958.727 6.207 1.681 7.955 4.771 2.299 4.064-2.184 8.452-3.317 13.046a2.738 2.738 0 0 0-.012 1.195 2.6 2.6 0 0 0 .495 1.066c.242.306.548.544.891.692.344.149.716.205 1.084.162 1.88-.202 4.107-.368 4.218-1.27 2.365.092 5.263-.201 6.276-2.894.31-1.065.474-2.174.486-3.292.372-4.523 2.128-8.649 3.291-12.953 1.163-4.305 1.669-9.35-.294-13.166a15.003 15.003 0 0 0-2.572-3.417c-11.139-11.786-25.785-13.729-39.811-13.712z" fill="#2F2E41"/><path d="M183.187 422.639s2.423 22.071-6.46 23.837c-8.883 1.766 8.075 31.782 8.075 31.782l40.377 5.297-9.691-35.313s-6.46-2.649-2.422-20.306c4.037-17.656-29.879-5.297-29.879-5.297z" fill="#9F616A"/><path d="M201.357 437.206c13.379 0 24.226-11.858 24.226-26.485 0-14.627-10.847-26.485-24.226-26.485-13.38 0-24.227 11.858-24.227 26.485 0 14.627 10.847 26.485 24.227 26.485z" fill="#9F616A"/><path d="M159.658 500.739c4.285-18.417 10.2-43.225 10.2-43.225s2.302.514 5.926 1.094a128.503 128.503 0 0 0 15.975 1.587c6.847.208 14.054-.284 19.629-2.396a17.937 17.937 0 0 0 5.796-3.382 11.775 11.775 0 0 0 1.941-2.199c9.69-14.128 13.724 39.723 13.724 39.723l.75 8.798h-73.941z" fill="#E7301C"/><path d="M237.063 557.643a14 14 0 0 0-.961.033l.46-.942c.16.296.321.602.501.909z" fill="#FFB8B8"/><path d="M193.153 372.122a5.093 5.093 0 0 0-2.833.601 7.051 7.051 0 0 0-1.917 2.401c-2.154 3.542-4.961 6.552-8.243 8.838-2.449 1.703-5.563 3.827-5.144 6.967a9.158 9.158 0 0 0 1.194 2.941c2.267 4.373 3.17 9.434 2.571 14.418l6.735-10.701c1.069-1.699 2.926-3.617 4.54-2.55.541.357.895.998 1.458 1.311 1.343.748 2.771-.681 3.96-1.694 4.098-3.492 9.926-2.578 15.027-1.489 2.407.513 5.052 1.187 6.475 3.372 2.365 3.63-.104 8.875 1.276 13.068.386-.296.715-.673.965-1.11.251-.437.418-.925.493-1.434 1.926.065 4.285-.142 5.11-2.045a7.636 7.636 0 0 0 .395-2.327c.303-3.197 1.732-6.113 2.679-9.155.947-3.043 1.359-6.608-.239-9.306a10.899 10.899 0 0 0-2.094-2.415c-9.068-8.33-20.99-9.703-32.408-9.691zM190.858 458.39c-5.525-6.905-8.808-16.973-8.958-17.422v-.011s-8.809-5.515-11.231-.219c-2.422 5.297-25.034 18.538-27.456 18.538a.363.363 0 0 1-.06.022c-.961.35-12.993 5.132-16.086 22.937a145.392 145.392 0 0 0-1.341 18.504h65.853c.681-7.802 1.191-15.101 1.391-21.404.291-8.788.01-15.616-1.211-19.14a5.736 5.736 0 0 0-.901-1.805zM247.483 463.358c-.04-.208-.07-.383-.1-.547a4.275 4.275 0 0 0-.541-1.313.097.097 0 0 1-.01-.033c-4.664-7.901-34.663-18.778-34.663-18.778l-1.121 4.234s.14 4.181.34 10.878c.2 6.27.44 14.74.671 24.042.16 6.073.3 12.508.43 18.898h44.873a307.193 307.193 0 0 0-9.879-37.381z" fill="#2F2E41"/><path d="m667.325 500.739 3.434-18.34 3.193-1.478.02.011c.29.121 3.763 1.729 3.763 7.825 0 1.225-.17 5.635-.45 11.982h-9.96z" fill="#575A89"/><path d="M631.263 436.678c15.399 0 27.883-13.648 27.883-30.483s-12.484-30.482-27.883-30.482-27.882 13.647-27.882 30.482 12.483 30.483 27.882 30.483z" fill="#FFB8B8"/><path d="m648.69 423.977-2.324 52.074-36.014-22.862 4.646-29.212h33.692z" fill="#FFB8B8"/><path d="m659.147 478.591-2.362 22.148h-18.908l-20.52-43.104-5.785-12.136-2.773-1.981 3.213-.799 2.533 2.003 28.337 22.444 4.544-14.915.12-.383 1.141-3.754 10.46 30.477z" fill="#E7301C"/><path d="M614.418 376.348s3.485-19.051 23.235-15.241l-2.323 1.27s18.588-2.54 16.264 8.891c0 0 15.103 10.161 11.618 21.591a139.247 139.247 0 0 0-4.647 20.322l-3.485-3.81s-3.486-25.402-24.397-22.862c-15.684 1.905-22.074 10.002-23.708 15.837a54.475 54.475 0 0 1-2.87 7.982l-1.305.313s-6.97-27.942 11.618-34.293zM673.972 480.932l-.02-.011-14.804-15.036V455.73l-11.431-9.848-.17 5.985-1.182 40.698-19.008-28.584-12.812-19.259-2.302-3.447.56-3.229-7.097 8.788-25.684 21.065-2.202 1.806a75.08 75.08 0 0 0-6.967 8.885c-.691 1.128-3.834 10.101-7.928 22.149h114.36c.28-6.347.45-10.757.45-11.983 0-6.095-3.473-7.704-3.763-7.824zM406.878 372.712c-18.894 0-34.21 18.584-34.21 41.507v29.125h8.193l4.744-10.791-1.186 10.791h52.663l4.312-9.81-1.078 9.81h5.93v-22.868c0-26.379-17.626-47.764-39.368-47.764z" fill="#2F2E41"/><path d="M379.269 500.739h-22.251l-.21-19.84c-.01-.208-.01-.405-.01-.613l4.454-5.482.08-.098 17.006 11.774.931 14.259z" fill="#D0CDE1"/><path d="M403.851 439.274c13.451 0 24.355-11.921 24.355-26.626 0-14.705-10.904-26.626-24.355-26.626-13.45 0-24.354 11.921-24.354 26.626 0 14.705 10.904 26.626 24.354 26.626z" fill="#FBBEBE"/><path d="M389.888 428.624s7.144 40.47 3.897 44.731c-3.247 4.26 34.421-7.811 34.421-7.811s-12.34-27.69-5.845-43.311l-32.473 6.391z" fill="#FBBEBE"/><path d="M455.963 455.993h-.01c-.574-1.327-1.566-2.383-2.793-2.977a190.87 190.87 0 0 0-12.272-5.165c-5.984-2.245-12.512-2.024-18.357.624a20.19 20.19 0 0 0-1.682.832s-23.813 4.957-26.646 4.333a6.434 6.434 0 0 0-.64-.099 10.36 10.36 0 0 0-1.291-.12c-5.541-.281-11.037 1.209-15.816 4.29-7.817 4.957-19.408 13.744-19.648 22.302l-.221.273.221 20.453h104.52c.21-19.599.33-34.328.33-35.324 0-3.097-5.695-9.422-5.695-9.422z" fill="#E7301C"/><path d="M416.604 384.146c-1.646-2.417-3.78-4.386-6.235-5.756a16.72 16.72 0 0 0-7.922-2.142h-.672c-12.949 0-23.447 12.811-23.447 28.614h4.339l.701-5.831 1.027 5.831h25.735l2.157-4.933-.539 4.933h5.062c2.363 12.827-1.031 25.654-10.183 38.481h8.624l4.313-9.867-1.078 9.867h16.44l3.234-22.694c0-16.995-9.033-31.407-21.556-36.503z" fill="#2F2E41"/><path d="M421.331 386.536c7.076 0 12.813-6.272 12.813-14.009 0-7.736-5.737-14.008-12.813-14.008-7.077 0-12.814 6.272-12.814 14.008 0 7.737 5.737 14.009 12.814 14.009z" fill="#2F2E41"/></g><defs><clipPath id="a"><path fill="#fff" d="M0 0h818v573H0z"/></clipPath></defs></svg>

<svg width="818" height="573" viewBox="0 0 818 573" fill="none" xmlns="http://www.w3.org/2000/svg">
<g clip-path="url(#clip0_195_124)">
<path d="M818 0.506836H0.349121V573H818V0.506836Z" fill="#E6E6E6"/>
<path d="M794.619 72.3115H23.7297V539.131H794.619V72.3115Z" fill="white"/>
<path d="M817.651 0H0V37.9761H817.651V0Z" fill="#E7301C"/>
<path d="M25.8136 26.4541C29.3693 26.4541 32.2518 23.3028 32.2518 19.4155C32.2518 15.5282 29.3693 12.377 25.8136 12.377C22.2579 12.377 19.3754 15.5282 19.3754 19.4155C19.3754 23.3028 22.2579 26.4541 25.8136 26.4541Z" fill="white"/>
<path d="M50.2514 26.4541C53.8071 26.4541 56.6896 23.3028 56.6896 19.4155C56.6896 15.5282 53.8071 12.377 50.2514 12.377C46.6957 12.377 43.8132 15.5282 43.8132 19.4155C43.8132 23.3028 46.6957 26.4541 50.2514 26.4541Z" fill="white"/>
<path d="M74.6892 26.4541C78.2449 26.4541 81.1274 23.3028 81.1274 19.4155C81.1274 15.5282 78.2449 12.377 74.6892 12.377C71.1335 12.377 68.251 15.5282 68.251 19.4155C68.251 23.3028 71.1335 26.4541 74.6892 26.4541Z" fill="white"/>
<path d="M269.354 110.708H118.579V289.539H269.354V110.708Z" fill="#E6E6E6"/>
<path d="M484.56 110.708H333.785V289.539H484.56V110.708Z" fill="#E6E6E6"/>
<path d="M699.767 110.708H548.992V289.539H699.767V110.708Z" fill="#E6E6E6"/>
<path d="M269.354 321.908H118.579V500.739H269.354V321.908Z" fill="#E6E6E6"/>
<path d="M484.56 321.908H333.785V500.739H484.56V321.908Z" fill="#E6E6E6"/>
<path d="M699.767 321.908H548.992V500.739H699.767V321.908Z" fill="#E6E6E6"/>
<path d="M177.145 218.841C191.221 218.841 202.631 206.366 202.631 190.978C202.631 175.589 191.221 163.114 177.145 163.114C163.069 163.114 151.658 175.589 151.658 190.978C151.658 206.366 163.069 218.841 177.145 218.841Z" fill="#FFB9B9"/>
<path d="M167.189 212.31C167.189 212.31 170.375 228.854 170.375 230.596C170.375 232.337 185.508 240.174 185.508 240.174L199.047 237.562L203.826 221.888C203.826 221.888 195.862 208.827 195.862 203.603L167.189 212.31Z" fill="#FFB9B9"/>
<path d="M155.043 168.529C155.043 168.529 163.135 149.361 178.644 153.785C194.154 158.208 202.92 164.843 203.594 171.478C204.269 178.113 203.257 188.065 203.257 188.065C203.257 188.065 201.571 174.427 190.782 177.376C179.993 180.324 163.135 178.113 163.135 178.113L160.437 204.652C160.437 204.652 157.403 199.861 154.031 202.809C150.659 205.758 144.253 174.427 155.043 168.529Z" fill="#2F2E41"/>
<path d="M257.983 282.841L251.617 251.49C248.424 241.039 240.466 232.339 240.466 232.339L201.188 217.238H201.178C201.102 221.034 199.931 224.706 197.834 227.732C195.736 230.758 192.819 232.983 189.497 234.09C177.546 238.434 169.318 223.793 169.318 223.793L136.116 251.49C136.116 251.49 125.766 261.076 126.567 279.361L125.466 289.538H261.046L257.983 282.841Z" fill="#E7301C"/>
<path d="M391.775 232.727C410.881 232.727 426.369 214.752 426.369 192.58C426.369 170.407 410.881 152.433 391.775 152.433C372.67 152.433 357.182 170.407 357.182 192.58C357.182 214.752 372.67 232.727 391.775 232.727Z" fill="#2F2E41"/>
<path d="M422.469 253.333C432.52 253.333 440.668 244.425 440.668 233.437C440.668 222.449 432.52 213.542 422.469 213.542C412.418 213.542 404.271 222.449 404.271 233.437C404.271 244.425 412.418 253.333 422.469 253.333Z" fill="#2F2E41"/>
<path d="M409.795 206.792L419.544 234.503L394.847 245.872L392.678 240.498L385.096 221.713L409.795 206.792Z" fill="#9F616A"/>
<path d="M390.297 224.91C402.322 224.91 412.07 214.253 412.07 201.107C412.07 187.96 402.322 177.303 390.297 177.303C378.272 177.303 368.523 187.96 368.523 201.107C368.523 214.253 378.272 224.91 390.297 224.91Z" fill="#9F616A"/>
<path d="M372.5 198.496C386.185 188.512 390.276 186.126 405.962 189.982L406.903 164.963L366.367 174.26L372.5 198.496Z" fill="#2F2E41"/>
<path d="M460.487 255.101L459.886 255.177C459.872 255.154 459.855 255.132 459.836 255.112C457.454 252.507 446.083 247.769 437.605 244.486H437.595C432.21 242.396 427.996 240.897 427.996 240.897L417.746 229.374C415.164 232.547 409.708 234.998 404.523 236.727C400.554 238.041 396.516 239.093 392.432 239.879H392.422L390.3 247.287C390.3 247.287 366.247 267.193 364.305 269.316H364.295V269.337C364.14 269.579 364.075 269.877 364.115 270.169V270.224C362.901 276.577 362.278 283.048 362.253 289.538H466.993V282.819C466.993 273.583 460.487 255.101 460.487 255.101Z" fill="#575A89"/>
<path d="M653.092 289.539H601.302L598.449 258.778L598.279 256.907L597.929 253.197L596.498 237.691L594.706 254.346L590.922 289.539H581.513L581.863 278.585L582.214 267.478L582.364 263.002L584.296 202.115C584.148 192.466 586.94 183.038 592.233 175.315C595.172 171.133 598.964 167.758 603.307 165.461C607.65 163.164 612.424 162.008 617.247 162.085C622.169 162.068 627.028 163.296 631.442 165.675C635.856 168.054 639.707 171.519 642.692 175.797C648.163 183.597 651.091 193.173 651.01 203.001L651.901 239.857L653.092 289.539Z" fill="#2F2E41"/>
<path d="M617.248 223.903C629.829 223.903 640.028 212.753 640.028 198.999C640.028 185.245 629.829 174.095 617.248 174.095C604.667 174.095 594.468 185.245 594.468 198.999C594.468 212.753 604.667 223.903 617.248 223.903Z" fill="#FBBEBE"/>
<path d="M605.858 216.787C605.858 216.787 612.366 240.802 605.858 247.917C599.349 255.033 597.722 257.701 597.722 257.701L616.434 285.274L648.977 241.691C648.977 241.691 626.197 234.576 631.892 215.008L605.858 216.787Z" fill="#FBBEBE"/>
<path d="M676.134 289.538H656.915L656.595 285.938L656.305 282.611L665.153 281.397L675.823 279.941L675.943 283.673L676.134 289.538Z" fill="#FBBEBE"/>
<path d="M677.452 283.495C677.452 283.495 674.197 261.259 671.757 252.365C669.316 243.47 666.875 243.47 666.875 243.47H666.875L666.875 243.468C664.002 240.328 657.096 239.769 651.901 239.857C648.257 239.901 645.455 240.251 645.455 240.251L616.437 273.715L601.823 252.474V252.463C600.507 252.575 599.203 252.821 597.929 253.197C596.833 253.502 595.756 253.886 594.706 254.346C590.18 256.46 586.009 259.385 582.364 263.002H582.354C580.252 265.07 579.011 266.591 579.011 266.591C575.792 273.906 573.367 281.607 571.784 289.538H664.773L664.983 284.964V284.955L677.452 283.495Z" fill="#E7301C"/>
<path d="M598.129 194.996C612.842 186.324 618.885 186.692 637.18 194.996L642.062 181.994C642.059 179.546 641.168 177.199 639.585 175.468C638.002 173.737 635.855 172.763 633.615 172.76H600.88C598.641 172.763 596.494 173.737 594.911 175.468C593.327 177.199 592.437 179.546 592.434 181.994L598.129 194.996Z" fill="#2F2E41"/>
<path d="M191.973 365.192C190.76 365.084 189.547 365.38 188.492 366.042C187.492 366.975 186.688 368.134 186.138 369.439C183.591 374.329 180.143 378.587 176.012 381.944C173.004 384.354 169.178 387.358 169.693 391.801C169.965 393.268 170.46 394.675 171.16 395.962C173.935 402.087 181.509 406.821 180.764 413.811C183.522 408.764 179.834 406.268 182.591 401.221C183.904 398.817 186.186 396.104 188.169 397.614C188.832 398.119 189.268 399.026 189.96 399.469C191.609 400.527 193.364 398.504 194.824 397.071C199.858 392.13 207.018 393.425 213.283 394.964C216.241 395.691 219.49 396.645 221.238 399.735C223.537 403.799 219.054 408.187 217.921 412.781C217.829 413.173 217.825 413.583 217.909 413.976C217.993 414.37 218.163 414.736 218.404 415.042C218.646 415.348 218.952 415.586 219.295 415.734C219.639 415.883 220.011 415.939 220.379 415.896C222.259 415.694 224.486 415.528 224.597 414.626C226.962 414.718 229.86 414.425 230.873 411.732C231.183 410.667 231.347 409.558 231.359 408.44C231.731 403.917 233.487 399.791 234.65 395.487C235.813 391.182 236.319 386.137 234.356 382.321C233.656 381.051 232.789 379.9 231.784 378.904C220.645 367.118 205.999 365.175 191.973 365.192Z" fill="#2F2E41"/>
<path d="M183.187 422.639C183.187 422.639 185.61 444.71 176.727 446.476C167.844 448.242 184.802 478.258 184.802 478.258L225.179 483.555L215.488 448.242C215.488 448.242 209.028 445.593 213.066 427.936C217.103 410.28 183.187 422.639 183.187 422.639Z" fill="#9F616A"/>
<path d="M201.357 437.206C214.736 437.206 225.583 425.348 225.583 410.721C225.583 396.094 214.736 384.236 201.357 384.236C187.977 384.236 177.13 396.094 177.13 410.721C177.13 425.348 187.977 437.206 201.357 437.206Z" fill="#9F616A"/>
<path d="M159.658 500.739C163.943 482.322 169.858 457.514 169.858 457.514C169.858 457.514 172.16 458.028 175.784 458.608C181.077 459.47 186.411 460 191.759 460.195C198.606 460.403 205.813 459.911 211.388 457.799C213.49 457.061 215.453 455.916 217.184 454.417C217.913 453.776 218.565 453.037 219.125 452.218C228.815 438.09 232.849 491.941 232.849 491.941L233.599 500.739L159.658 500.739Z" fill="#E7301C"/>
<path d="M237.063 557.643C236.742 557.643 236.422 557.654 236.102 557.676L236.562 556.734C236.722 557.03 236.883 557.336 237.063 557.643Z" fill="#FFB8B8"/>
<path d="M193.153 372.122C192.176 372.043 191.198 372.25 190.32 372.723C189.525 373.357 188.87 374.177 188.403 375.124C186.249 378.666 183.442 381.676 180.16 383.962C177.711 385.665 174.597 387.789 175.016 390.929C175.244 391.982 175.649 392.979 176.21 393.87C178.477 398.243 179.38 403.304 178.781 408.288L185.516 397.587C186.585 395.888 188.442 393.97 190.056 395.037C190.597 395.394 190.951 396.035 191.514 396.348C192.857 397.096 194.285 395.667 195.474 394.654C199.572 391.162 205.4 392.076 210.501 393.165C212.908 393.678 215.553 394.352 216.976 396.537C219.341 400.167 216.872 405.412 218.252 409.605C218.638 409.309 218.967 408.932 219.217 408.495C219.468 408.058 219.635 407.57 219.71 407.061C221.636 407.126 223.995 406.919 224.82 405.016C225.071 404.27 225.204 403.483 225.215 402.689C225.518 399.492 226.947 396.576 227.894 393.534C228.841 390.491 229.253 386.926 227.655 384.228C227.07 383.314 226.365 382.5 225.561 381.813C216.493 373.483 204.571 372.11 193.153 372.122Z" fill="#2F2E41"/>
<path d="M190.858 458.39C185.333 451.485 182.05 441.417 181.9 440.968V440.957C181.9 440.957 173.091 435.442 170.669 440.738C168.247 446.035 145.635 459.276 143.213 459.276C143.193 459.285 143.173 459.293 143.153 459.298C142.192 459.648 130.16 464.43 127.067 482.235C126.227 488.361 125.779 494.544 125.726 500.739H191.579C192.26 492.937 192.77 485.638 192.97 479.335C193.261 470.547 192.98 463.719 191.759 460.195C191.564 459.537 191.258 458.925 190.858 458.39V458.39Z" fill="#2F2E41"/>
<path d="M247.483 463.358C247.443 463.15 247.413 462.975 247.383 462.811C247.275 462.341 247.092 461.897 246.842 461.498C246.837 461.488 246.833 461.476 246.832 461.465C242.168 453.564 212.169 442.687 212.169 442.687L211.048 446.921C211.048 446.921 211.188 451.102 211.388 457.799C211.588 464.069 211.828 472.539 212.059 481.841C212.219 487.914 212.359 494.349 212.489 500.739H257.362C254.848 488.048 251.547 475.559 247.483 463.358Z" fill="#2F2E41"/>
<path d="M667.325 500.739L670.759 482.399L673.952 480.921L673.972 480.932C674.262 481.053 677.735 482.661 677.735 488.757C677.735 489.982 677.565 494.392 677.285 500.739H667.325Z" fill="#575A89"/>
<path d="M631.263 436.678C646.662 436.678 659.146 423.03 659.146 406.195C659.146 389.36 646.662 375.713 631.263 375.713C615.864 375.713 603.381 389.36 603.381 406.195C603.381 423.03 615.864 436.678 631.263 436.678Z" fill="#FFB8B8"/>
<path d="M648.69 423.977L646.366 476.051L610.352 453.189L614.998 423.977H648.69Z" fill="#FFB8B8"/>
<path d="M659.147 478.591L656.785 500.739H637.877L617.357 457.635L611.572 445.499L608.799 443.518L612.012 442.719L614.545 444.722L642.882 467.166L647.426 452.251L647.546 451.868L648.687 448.114L659.147 478.591Z" fill="#E7301C"/>
<path d="M614.418 376.348C614.418 376.348 617.903 357.297 637.653 361.107L635.33 362.377C635.33 362.377 653.918 359.837 651.594 371.268C651.594 371.268 666.697 381.429 663.212 392.859C661.163 399.485 659.608 406.281 658.565 413.181L655.08 409.371C655.08 409.371 651.594 383.969 630.683 386.509C614.999 388.414 608.609 396.511 606.975 402.346C606.223 405.089 605.263 407.759 604.105 410.328L602.8 410.641C602.8 410.641 595.83 382.699 614.418 376.348Z" fill="#2F2E41"/>
<path d="M673.972 480.932L673.952 480.921L659.148 465.885V455.73L647.717 445.882L647.547 451.867L646.365 492.565L627.357 463.981L614.545 444.722L612.243 441.275L612.803 438.046L605.706 446.834L580.022 467.899L577.82 469.705C575.293 472.468 572.964 475.439 570.853 478.59C570.162 479.718 567.019 488.691 562.925 500.739H677.285C677.565 494.392 677.735 489.982 677.735 488.756C677.735 482.661 674.262 481.052 673.972 480.932Z" fill="#2F2E41"/>
<path d="M406.878 372.712C387.984 372.712 372.668 391.296 372.668 414.219V443.344H380.861L385.605 432.553L384.419 443.344H437.082L441.394 433.534L440.316 443.344H446.246V420.476C446.246 394.097 428.62 372.712 406.878 372.712Z" fill="#2F2E41"/>
<path d="M379.269 500.739H357.018L356.808 480.899C356.798 480.691 356.798 480.494 356.798 480.286L361.252 474.804L361.332 474.706L378.338 486.48L379.269 500.739Z" fill="#D0CDE1"/>
<path d="M403.851 439.274C417.302 439.274 428.206 427.353 428.206 412.648C428.206 397.943 417.302 386.022 403.851 386.022C390.401 386.022 379.497 397.943 379.497 412.648C379.497 427.353 390.401 439.274 403.851 439.274Z" fill="#FBBEBE"/>
<path d="M389.888 428.624C389.888 428.624 397.032 469.094 393.785 473.355C390.538 477.615 428.206 465.544 428.206 465.544C428.206 465.544 415.866 437.854 422.361 422.233L389.888 428.624Z" fill="#FBBEBE"/>
<path d="M455.963 455.993H455.953C455.379 454.666 454.387 453.61 453.16 453.016C448.385 450.817 444.271 449.131 440.888 447.851C434.904 445.606 428.376 445.827 422.531 448.475C421.96 448.727 421.4 449 420.849 449.307C420.849 449.307 397.036 454.264 394.203 453.64C393.993 453.596 393.773 453.563 393.563 453.541C393.135 453.474 392.704 453.434 392.272 453.421C386.731 453.14 381.235 454.63 376.456 457.711C368.639 462.668 357.048 471.455 356.808 480.013L356.587 480.286L356.808 500.739H461.328C461.538 481.14 461.658 466.411 461.658 465.415C461.658 462.318 455.963 455.993 455.963 455.993Z" fill="#E7301C"/>
<path d="M416.604 384.146C414.958 381.729 412.824 379.76 410.369 378.39C407.914 377.02 405.203 376.287 402.447 376.248H401.775C388.826 376.248 378.328 389.059 378.328 404.862V404.862H382.667L383.368 399.031L384.395 404.862H410.13L412.287 399.929L411.748 404.862H416.81C419.173 417.689 415.779 430.516 406.627 443.343H415.251L419.564 433.476L418.486 443.343H434.926L438.16 420.649C438.16 403.654 429.127 389.242 416.604 384.146Z" fill="#2F2E41"/>
<path d="M421.331 386.536C428.407 386.536 434.144 380.264 434.144 372.527C434.144 364.791 428.407 358.519 421.331 358.519C414.254 358.519 408.517 364.791 408.517 372.527C408.517 380.264 414.254 386.536 421.331 386.536Z" fill="#2F2E41"/>
</g>
<defs>
<clipPath id="clip0_195_124">
<rect width="818" height="573" fill="white"/>
</clipPath>
</defs>
</svg>
